icon/cg/trending-down.svg

<svg viewBox="0 0 24 24" fill="none" xmlns="http://www.w3.org/2000/svg" height="1em" width="1em">
  <path d="M1.85104 8.10628L0.436829 9.52049L7.5079 16.5916L13.8719 10.2276L18.1145 14.4702L16.3721 16.2126L23.0642 18.0058L21.2711 11.3136L19.5287 13.056L13.8719 7.39917L7.5079 13.7631L1.85104 8.10628Z" fill="currentColor"/>
</svg>

<svg width="24" height="24" fill="none" xmlns="http://www.w3.org/2000/svg"><path d="M1.851 8.106.437 9.52l7.07 7.072 6.365-6.364 4.242 4.242-1.742 1.743 6.692 1.793-1.793-6.692-1.742 1.742-5.657-5.657-6.364 6.364L1.85 8.106Z" fill="currentColor"/></svg>
